X: 76
T: The Reel of the Royal Scots
P: The Reel of the Royal Scots
C:P.M. C. T. Clark
R:Reel (8x32)
B:RSCDS L-7
Z:Anselm Lingnau <anselm@strathspey.org>
M:C|
L:1/8
K:D
|:f2|"D"Adde def2|Aafd "A"e2 cA|1 "D"d2 de defd|"Em"Beed "A7"e2 \
                              :|2 "D"d2 de f2 ed|"A7"egfe "D"d2||
|:fg|"D"afAd f2 A2|defd "A"cecA|1"D"d2f2 defd|"Em"Beed "A7"e2 \
                              :|2"D"d2 de f2 ed|"A7"egfe "D"d2||
|:fe|"D"d2 dB AAAB|A2 af "A"egfe|1"D"d2 de defd|"Em"Beed "A7"e2 \
                               :|2"D"d2 de f2 ed|"A7"egfe "D"d2||
|:fg|"D"a2 af Aa f2|Aaaf "A"egfe|1"D"d2 f2 defd|"Em"Beed "A7"e2 fg \
                                |2"D"d2 de f2 ed|"A7"egfe "D"d2|]

%%sep 2 1 500
%%sep 1 1 500

